img/gulp-white-logo.svg

<?xml version="1.0" encoding="UTF-8"?>
<svg width="286px" height="620px" viewBox="0 0 286 620" version="1.1" xmlns="http://www.w3.org/2000/svg" xmlns:xlink="http://www.w3.org/1999/xlink">
    <!-- Generator: Sketch 41.2 (35397) - http://www.bohemiancoding.com/sketch -->
    <title>gulp-white-logo</title>
    <desc>Created with Sketch.</desc>
    <defs></defs>
    <g stroke="none" stroke-width="1" fill="none" fill-rule="evenodd">
        <path d="M262.609907,341.06458 L282.86125,159 C282.86125,159 263.65125,174.8975 141.4375,174.8975 C19.2225,174.8975 2,159.33125 2,159.33125 L18.0580012,314.10106 C26.6567212,289.628723 47.1606205,239.847622 79.5105,241.515141 C94.19925,242.272641 113.808,270.556391 97.0105,271.515141 C89.90175,271.920141 89.17925,257.397641 80.7605,255.265141 C74.6855,253.725141 66.22675,258.663891 60.7605,264.015141 C49.85925,274.685141 26.413,316.778891 29.5105,337.765141 C33.458,364.521391 66.43175,328.468891 72.0105,317.765141 C75.93925,310.225141 78.59425,287.885141 87.188,290.228891 C95.78175,292.572641 86.438,315.627641 80.208,336.010141 C73.2105,358.898891 69.53175,383.041391 60.7605,380.265141 C51.988,377.488891 66.27675,347.942641 65.7605,342.765141 C57.505367,350.380652 42.2921911,369.678632 22.8274324,360.069667 L33.13375,459.40375 C33.13375,459.40375 59.96125,480.6 140.775,480.6 C221.58875,480.6 249.41,459.735 249.41,459.735 L260.828219,357.082392 C249.634167,367.18059 219.025002,383.287301 217.00875,363.898603 C215.33875,347.829853 252.15875,324.556103 242.70875,323.811103 C222.3675,324.973603 212.24375,347.649853 202.00875,371.398603 C198.25875,380.102353 185.425,417.217353 177.00875,412.648603 C168.59375,408.081103 187.9175,377.561103 193.33375,359.436103 C187.08375,364.018603 164.165,381.824853 158.25875,365.148603 C148.7625,373.213603 128.47125,377.583603 130.76,356.398603 C125.70875,365.347353 114.37,377.839853 100.76,372.648603 C82.8875,365.832353 111.11625,308.899853 118.13625,311.772353 C125.15625,314.643603 116.71875,327.612353 114.51,332.648603 C109.65,343.732353 104.03625,357.666103 107.78625,360.518603 C114.21125,365.404853 131.695,342.032353 132.08375,341.518603 C135.35375,337.198603 144.67,308.934853 152.17875,312.179853 C159.6875,315.424853 133.45,352.742353 143.26,360.148603 C145.23875,361.643603 153.33375,359.227353 158.25875,353.898603 C161.445,350.452353 160.34875,342.818603 170.97,317.489853 C181.59125,292.162353 191.0575,260.619853 198.34125,263.022353 C205.625,265.424853 199.62125,281.613603 197.00875,287.648603 C184.74625,315.973603 163.54125,362.769853 173.54125,359.227353 C183.54125,355.684853 188.74875,355.477353 198.54125,344.018603 C208.33375,332.559853 207.88125,313.684853 214.40875,314.086103 C220.9375,314.487353 219.84125,320.539853 218.25875,325.148603 C224.6825,317.797353 248.70875,302.314853 254.50875,317.648603 C261.38,335.801103 220.13375,362.023603 230.4175,360.686103 C239.971418,359.443525 255.19589,350.041435 262.609907,341.06458 Z M178.880988,129.636404 C167.460275,129.221007 155.483099,129 143.13875,129 C64.56,129 0.85875,137.955 0.85875,149 C0.85875,160.045 64.56,169 143.13875,169 C221.71625,169 285.41625,160.045 285.41625,149 C285.41625,140.99958 251.994161,134.09574 203.704996,130.897527 L213.5525,91.975 L284.025,17.82 L283.692887,17.5371264 C283.941933,17.4100833 284.157311,17.2448258 284.33475,17.0398773 C286.106,14.9936273 283.41725,9.75862733 278.3285,5.34862733 C273.23725,0.941127326 267.6735,-0.973872674 265.8985,1.07362733 C265.668324,1.33935181 265.513402,1.65884953 265.429219,2.02332542 L190.84125,80.9925 L178.880988,129.636404 Z M220.399125,600.179125 C220.399125,610.700375 185.699125,619.229125 142.896625,619.229125 C100.091625,619.229125 65.392875,610.700375 65.392875,600.179125 L58.755375,502.036625 L39.992875,470.862875 C39.992875,470.862875 77.517875,486.161625 141.309125,486.161625 C205.100375,486.161625 243.202875,470.574125 243.202875,470.574125 L226.461625,499.151625 L220.399125,600.179125 Z M196.870875,154.440724 C199.267125,154.115724 202.960875,153.674474 202.977125,150.771974 C202.979625,149.065724 201.544625,148.078224 199.899625,147.568224 L198.677125,149.480724 C199.685875,149.721974 200.265875,150.028224 200.265875,150.353224 C200.259625,151.428224 192.590875,151.950724 186.244625,152.029474 C179.898375,152.109474 171.602125,151.363224 171.607125,150.273224 C171.608375,150.040724 171.913375,149.823224 172.447125,149.638224 L171.219625,147.711974 C169.920875,148.241974 168.902125,149.088224 168.895875,150.523224 C168.892125,151.276974 169.229625,152.390724 169.845875,152.951974 C172.139625,155.040724 177.898375,155.126974 186.007125,155.093224 C194.114625,155.059474 196.870875,154.440724 196.870875,154.440724 Z" id="gulp-white-logo" fill="#F7F8F8"></path>
    </g>
</svg>

<?xml version="1.0" encoding="UTF-8"?>
<svg xmlns="http://www.w3.org/2000/svg" width="286" height="620" viewBox="0 0 286 620">
  <path fill="#F7F8F8" fill-rule="evenodd" d="M262.6 341.06L282.87 159s-19.2 15.9-141.42 15.9C19.22 174.9 2 159.33 2 159.33L18.06 314.1c8.6-24.47 29.1-74.25 61.45-72.58 14.7.75 34.3 29.04 17.5 30-7.1.4-7.8-14.12-16.2-16.25-6.07-1.54-14.53 3.4-20 8.75-10.9 10.67-34.35 52.76-31.25 73.75 3.96 26.75 36.93-9.3 42.5-20 3.94-7.54 6.6-29.88 15.2-27.54 8.58 2.34-.76 25.4-7 45.78-7 22.9-10.67 47.08-19.44 44.3-8.77-2.8 5.5-32.32 5-37.5-8.25 7.6-23.47 26.9-42.93 17.3l10.3 99.34s26.83 21.2 107.65 21.2c80.8 0 108.65-20.86 108.65-20.86l11.43-102.65c-11.2 10.1-41.8 26.2-43.82 6.8-1.66-16.05 35.16-39.32 25.7-40.1-20.33 1.2-30.46 23.87-40.7 47.6-3.74 8.7-16.57 45.84-25 41.27-8.4-4.58 10.92-35.1 16.33-53.2-6.25 4.56-29.17 22.36-35.07 5.7-9.5 8.05-29.8 12.42-27.5-8.76-5.04 8.96-16.4 21.45-30 16.26-17.86-6.82 10.37-63.75 17.4-60.88 7 2.87-1.43 15.84-3.64 20.88-4.86 11.08-10.47 25.02-6.7 27.87 6.4 4.88 23.9-18.5 24.27-19 3.27-4.32 12.6-32.6 20.1-29.34 7.5 3.24-18.73 40.56-8.92 47.97 2 1.5 10.08-.92 15-6.25 3.2-3.44 2.1-11.07 12.7-36.4 10.64-25.33 20.1-56.87 27.4-54.47 7.27 2.4 1.27 18.6-1.34 24.63-12.24 28.34-33.45 75.14-23.45 71.6 10-3.55 15.2-3.75 25-15.2 9.8-11.47 9.34-30.35 15.87-29.94 6.54.4 5.44 6.44 3.86 11.05 6.42-7.34 30.45-22.83 36.25-7.5 6.9 18.16-34.36 44.38-24.07 43.05 9.55-1.26 24.78-10.66 32.2-19.64zm-83.7-211.42c-11.42-.42-23.4-.64-35.74-.64-78.6 0-142.3 8.96-142.3 20s63.7 20 142.28 20 142.28-8.96 142.28-20c0-8-33.43-14.9-81.72-18.1l9.85-38.93 70.47-74.15-.33-.28c.2-.13.42-.3.6-.5 1.8-2.05-.9-7.28-6-11.7-5.1-4.4-10.67-6.3-12.44-4.27-.24.27-.4.6-.48.95L190.8 81l-11.94 48.64zm41.52 470.54c0 10.52-34.7 19.05-77.5 19.05s-77.5-8.53-77.5-19.05l-6.64-98.14L40 470.86s37.52 15.3 101.3 15.3c63.8 0 101.9-15.6 101.9-15.6l-16.74 28.6-6.06 101.02zM196.9 154.44c2.4-.32 6.1-.77 6.1-3.67 0-1.7-1.44-2.7-3.08-3.2l-1.22 1.9c1 .25 1.6.56 1.6.88-.02 1.08-7.7 1.6-14.04 1.68-6.34.08-14.64-.67-14.63-1.76 0-.23.3-.45.85-.63l-1.23-1.93c-1.3.58-2.32 1.4-2.32 2.86 0 .76.33 1.87.95 2.43 2.3 2.1 8.05 2.17 16.16 2.13 8.1-.03 10.87-.65 10.87-.65z"/>
</svg>
